mobile/apps/auth/assets/custom-icons/icons/sendgrid.svg

<svg xmlns="http://www.w3.org/2000/svg" style="shape-rendering:geometricPrecision;text-rendering:geometricPrecision;image-rendering:optimizeQuality;fill-rule:evenodd;clip-rule:evenodd" viewBox="0 0 320 320"><path fill="#51a8e2" d="M126.5 8.5c58.334-.167 116.668 0 175 .5 4.719.93 7.552 3.763 8.5 8.5.667 58.333.667 116.667 0 175-1.833 9.833-7.667 15.667-17.5 17.5-22 .667-44 .667-66 0-9.833-1.833-15.667-7.667-17.5-17.5l-1-69c-2.263-6.052-6.43-10.219-12.5-12.5l-69-1c-9.833-1.833-15.667-7.667-17.5-17.5-.667-22-.667-44 0-66 2.014-9.846 7.847-15.846 17.5-18Z" style="opacity:.998"/><path fill="#50a8e2" d="M26.5 108.5a2177.1 2177.1 0 0 1 66 .5c9.833 1.833 15.667 7.667 17.5 17.5l1 69c2.263 6.052 6.43 10.219 12.5 12.5l69 1c9.833 1.833 15.667 7.667 17.5 17.5.667 22 .667 44 0 66-1.833 9.833-7.667 15.667-17.5 17.5-58.333.667-116.667.667-175 0-4.719-.929-7.552-3.763-8.5-8.5a7656.462 7656.462 0 0 1 0-175c2.014-9.846 7.847-15.846 17.5-18Z" style="opacity:.998"/></svg>

<?xml version="1.0" encoding="UTF-8"?>
<!DOCTYPE svg PUBLIC "-//W3C//DTD SVG 1.1//EN" "http://www.w3.org/Graphics/SVG/1.1/DTD/svg11.dtd">
<svg xmlns="http://www.w3.org/2000/svg" version="1.1" width="320px" height="320px" style="shape-rendering:geometricPrecision; text-rendering:geometricPrecision; image-rendering:optimizeQuality; fill-rule:evenodd; clip-rule:evenodd" xmlns:xlink="http://www.w3.org/1999/xlink">
<g><path style="opacity:0.998" fill="#51a8e2" d="M 126.5,8.5 C 184.834,8.33334 243.168,8.50001 301.5,9C 306.219,9.92933 309.052,12.7627 310,17.5C 310.667,75.8333 310.667,134.167 310,192.5C 308.167,202.333 302.333,208.167 292.5,210C 270.5,210.667 248.5,210.667 226.5,210C 216.667,208.167 210.833,202.333 209,192.5C 208.667,169.5 208.333,146.5 208,123.5C 205.737,117.448 201.57,113.281 195.5,111C 172.5,110.667 149.5,110.333 126.5,110C 116.667,108.167 110.833,102.333 109,92.5C 108.333,70.5 108.333,48.5 109,26.5C 111.014,16.654 116.847,10.654 126.5,8.5 Z"/></g>
<g><path style="opacity:0.998" fill="#50a8e2" d="M 26.5,108.5 C 48.5025,108.333 70.5025,108.5 92.5,109C 102.333,110.833 108.167,116.667 110,126.5C 110.333,149.5 110.667,172.5 111,195.5C 113.263,201.552 117.43,205.719 123.5,208C 146.5,208.333 169.5,208.667 192.5,209C 202.333,210.833 208.167,216.667 210,226.5C 210.667,248.5 210.667,270.5 210,292.5C 208.167,302.333 202.333,308.167 192.5,310C 134.167,310.667 75.8333,310.667 17.5,310C 12.7815,309.071 9.94815,306.237 9,301.5C 8.33333,243.167 8.33333,184.833 9,126.5C 11.0141,116.654 16.8474,110.654 26.5,108.5 Z"/></g>
</svg>
